X:460
T:
R:vals
S:Ur en gammal notbok tillhörande Gotlands fornsal.
O:Gotland
M:3/4
L:1/8
K:D
Ad|f3 efg|e2 c2 A2|(dc)(BA)(Bc)|d2 f2 Ad|f3 efg|e2 c2 A2|(dc)(BA)(Bc)|d4::d'2|
(d'c')(ba)(be')|d'2 a2 d'2|(d'c')(ba)(bc')|d'4 a2|gecAce|dAFAdf|(ec)(Aa)(ge)|d4::
K:G
d2|B2 GB d2|B2 GB d2|(^cd)(ef)(ge)|d2 ^c2 d2|B2 GB d2|B2 GB d2|c2 a2 f2|g4::d2|
^c2 e2 A2|c2 F2 A2|B2 c2 B2|A4 d2|c2 a2 a2|B2 g2 g2|A2 f2 f2|g4:|

